X: 5497
T: Bunny's Hat, The
R: reel
M: 4/4
K: Dmajor
FABA cBAF|Bcde fedA|FABF AAAF|EFFF ABBB||
FABA cBAF|Bcde fedB|FABd cAAA|faec dBBA||
FABd efaf|efaf edcA|FABd efaf|edcB ABBB||
FABd efff|aefa bafe|dBBB cAce|faec dBcA||

